!!!!SEGMENT: pl-sa--l-1643--022_anonim--veni-sankte-spiritus.krn
!!!cenid: 16xx:1377
!!!COM: Anonim
!!!COM-rismid: pe30004985
!!!CDT:
!!!CNT:
!!!OTL: Veni Sankte Spiritus
!!!PDT:
!!!AGN: Sacred
!!!SMS-siglum: PL-SA
!!!SMS-shelfmark: L 1643
!!!SMS-shelfwork: 022 W
!!!SMS-variant:
!!!SMS-altvar:
!!!NIFC-rismid: 1001064773
!!!URL-scan: http://repozytorium.nifc.pl/skany/pl-sa-nut--l1643
!!!ONB-nifc: UWAGA: 8 ksiąg. Primi chori: 1mus Cantus (x), C 2dus (45-46), C 3tius (33), Bassus (89); Secondi chori: Primus Cantus (x), C 2dus (x), Altus (x), Bassus (101-102). UWAGA: metrum 2/2 i 3/2. Nie dodawać pustych linii, chyba że w rękopisie pojawiają się dodatkowe oznaczenia dotyczące pełnej obsady (a 4, a 8 itp.)
!!!key:
**kern	**text	**kern	**text	**kern	**text	**kern	**text
*group1	*	*group1	*	*group1	*	*group1	*
*part4	*part4	*part3	*part3	*part2	*part2	*part1	*part1
*staff4	*staff4	*staff3	*staff3	*staff2	*staff2	*staff1	*staff1
*Iempty	*	*Iempty	*	*Iempty	*	*Iempty	*
*I"Baſsus 2di Chori	*	*I"Bassus Primi Chori	*	*I"Cantus 3tius Primi Chori	*	*I"Cantus 2dus Primi Chori	*
*I'[Coro 2 B]	*	*I'[Coro 1 B]	*	*I'[Coro 1 C 3]	*	*I'[Coro 1 C 2]	*
*clefC3	*	*clefC3	*	*clefC2	*	*clefC1	*
*k[]	*	*k[]	*	*k[]	*	*k[]	*
*C:	*	*C:	*	*C:	*	*C:	*
*M3/2	*	*M3/2	*	*M3/2	*	*M3/2	*
=1-	=1-	=1-	=1-	=1-	=1-	=1-	=1-
0c	Ve-	0c	Ve-	0g	Ve-	0cc	Ve-
=2-	=2-	=2-	=2-	=2-	=2-	=2-	=2-
.	.	.	.	.	.	.	.
1c	-ni	1c	-ni	1g	-ni	1cc	-ni
=3-	=3-	=3-	=3-	=3-	=3-	=3-	=3-
!	!	!	!	!	!LO:SIC:v:s:l:t=sanc-te	!	!LO:SIC:v:s:l:t=sanc-te
0F	ſanc-	0f	Sanc-	0a	ſan-	1.a	sa(n)-
=4-	=4-	=4-	=4-	=4-	=4-	=4-	=4-
.	.	.	.	.	.	2b\	-cte
1c	-te	1c	-te	1g	-kte	1cc	.
!LO:SIC:v:t=custos g	!	!	!	!	!	!	!
!LO:LB:g=original	!	!	!	!	!	!	!
=5-	=5-	=5-	=5-	=5-	=5-	=5-	=5-
0g	-ſpi-	0G	spi-	0g	-ſpi-	0b	-ſpi-
=6-	=6-	=6-	=6-	=6-	=6-	=6-	=6-
.	.	.	.	.	.	.	.
1g	-ri-	1G	-ri-	1g	-ri-	1b	-ri-
=7-	=7-	=7-	=7-	=7-	=7-	=7-	=7-
*M2/2	*	*M2/2	*	*M2/2	*	*M2/2	*
*met(C|)	*	*met(C|)	*	*met(C|)	*	*met(C|)	*
2c,</	-tuſ	2c/	-tus	2g\	-tuſ	2cc\	-tuſ
2c/	re-	2r	.	2r	.	2r	.
=8-	=8-	=8-	=8-	=8-	=8-	=8-	=8-
2c/	-ple-	00r	.	00r	.	00r	.
2c/	-tu-	.	.	.	.	.	.
=9-	=9-	=9-	=9-	=9-	=9-	=9-	=9-
2f\	-o-	.	.	.	.	.	.
2f,<\	-rum	.	.	.	.	.	.
=10-	=10-	=10-	=10-	=10-	=10-	=10-	=10-
1d	kor-	.	.	.	.	.	.
=11-	=11-	=11-	=11-	=11-	=11-	=11-	=11-
2c,</	-da	.	.	.	.	.	.
2c/	fi-	.	.	.	.	.	.
=12-	=12-	=12-	=12-	=12-	=12-	=12-	=12-
2f\	-de-	1r	.	1r	.	1r	.
2g\	-li-	.	.	.	.	.	.
=13-	=13-	=13-	=13-	=13-	=13-	=13-	=13-
2c/	-um	2r	.	2r	.	2r	.
!	!	!LO:SIC:v:t=custos c	!	!	!	!	!
!	!	!LO:LB:g=original	!	!	!	!	!
2r	.	2c/	(et)	2g\	et	2cc\	et
=14-	=14-	=14-	=14-	=14-	=14-	=14-	=14-
1r	.	4F/	tu-	1a	tu-	1cc	tu-
.	.	4G/	.	.	.	.	.
.	.	4A/	.	.	.	.	.
.	.	4B/	.	.	.	.	.
=15-	=15-	=15-	=15-	=15-	=15-	=15-	=15-
2r	.	2c/	-i	2g\	-i,	2cc\	-i
2c/	et	2r	.	2r	.	2r	.
=16-	=16-	=16-	=16-	=16-	=16-	=16-	=16-
1G	tu-	1r	.	1r	.	1r	.
=17-	=17-	=17-	=17-	=17-	=17-	=17-	=17-
2c,</	-i	2r	.	2r	.	2r	.
2c/	a-	2c/	a-	2g\	a-	2cc\	a-
=18-	=18-	=18-	=18-	=18-	=18-	=18-	=18-
1g	-mo-	1G	-mo-	1g	-mo-	1b	-mo-
=19-	=19-	=19-	=19-	=19-	=19-	=19-	=19-
2c,</	-ris	2c/	-ris	2g\	-ris	2cc\	-ris
2g\	in	2G/	in	2g\	in	2b\	in
=20-	=20-	=20-	=20-	=20-	=20-	=20-	=20-
1d	e-	1d	e-	1a	e-	1dd	e-
!LO:SIC:v:t=custos g	!	!	!	!	!	!	!
!LO:LB:g=original	!	!	!	!	!	!	!
=21-	=21-	=21-	=21-	=21-	=21-	=21-	=21-
2g\,<	-is	2G/	-is	2g\	-is	2dd\	-is
!	!	!	!	!	!	!LO:SIC:v:t=custos b	!
!	!	!	!	!	!	!LO:LB:g=original	!
2r	.	2g\	ig-	2g\	i-	2b\	ig-
=22-	=22-	=22-	=22-	=22-	=22-	=22-	=22-
0r	.	2f\	-nem	2a\	-gnem	2a\	-nem
.	.	2e\	ac-	2g\	ac-	2cc\	ac-
!	!	!	!	!LO:SIC:v:t=custos f	!	!	!
!	!	!	!	!LO:LB:g=original	!	!	!
=23-	=23-	=23-	=23-	=23-	=23-	=23-	=23-
.	.	1d	-cen-	1f	-cen-	(>2a\	-cen-
.	.	.	.	.	.	2b\)	.
=24-	=24-	=24-	=24-	=24-	=24-	=24-	=24-
2r	.	2c/	-de	2g\	-de	2cc\	-de
2c/	qui	2r	.	2r	.	2r	.
=25-	=25-	=25-	=25-	=25-	=25-	=25-	=25-
2c/,<	per	0r	.	0r	.	0r	.
2c/	dyr-	.	.	.	.	.	.
=26-	=26-	=26-	=26-	=26-	=26-	=26-	=26-
2f\	-ver-	.	.	.	.	.	.
2d\	-ſy-	.	.	.	.	.	.
=27-	=27-	=27-	=27-	=27-	=27-	=27-	=27-
4c/	-ta-	1r	.	1r	.	1r	.
4d/	.	.	.	.	.	.	.
4e\	.	.	.	.	.	.	.
4f\	.	.	.	.	.	.	.
=28-	=28-	=28-	=28-	=28-	=28-	=28-	=28-
2g\	-tem	2r	.	2r	.	2r	.
2r	.	2c/	lin-	2g\	lin-	1cc\	lin-
=29-	=29-	=29-	=29-	=29-	=29-	=29-	=29-
1r	.	1G	-gua-	1g	-gua-	.	.
.	.	.	.	.	.	2b\	-gua-
=30-	=30-	=30-	=30-	=30-	=30-	=30-	=30-
2r	.	2c/	-rum	2g,<\	-rum	2cc\	-rum
!	!	!LO:LB:g=original	!	!	!	!	!
2g\	cun-	2G/	cun-	2g\	cun-	2b\	cun-
=31-	=31-	=31-	=31-	=31-	=31-	=31-	=31-
1d	-kta-	1d	-cta-	1a	-cta-	1dd	-cta-
=32-	=32-	=32-	=32-	=32-	=32-	=32-	=32-
2g\	-rum	1G	-rum	1g,<	-rum	1dd	-rum
2g\	gen-	.	.	.	.	.	.
=33-	=33-	=33-	=33-	=33-	=33-	=33-	=33-
2g\	-teſ	1G	gen-	1g	gen-	1b	gen-
2g\	in	.	.	.	.	.	.
=34-	=34-	=34-	=34-	=34-	=34-	=34-	=34-
2c/	u-	2c/	-tes	2g,<\	-teſ	2cc\	-teſ
2c/	-ni-	2c/	in	2g\	in	2cc\	in
=35-	=35-	=35-	=35-	=35-	=35-	=35-	=35-
1c	-ta-	2c/	u-	2g\	u-	2cc\	u-
.	.	2c/	-ni-	2g\	-ni-	2cc\	-ni-
=36-	=36-	=36-	=36-	=36-	=36-	=36-	=36-
2f,<\	-te	4F/	-ta-	1a	-ta-	1cc	-ta-
.	.	4G/	.	.	.	.	.
2f\	gen-	4A/	.	.	.	.	.
.	.	4B/	.	.	.	.	.
=37-	=37-	=37-	=37-	=37-	=37-	=37-	=37-
2c/	-teſ	1c	-te	1g,<	-te	1cc	-te
2c/	in	.	.	.	.	.	.
!LO:SIC:v:t=custos g	!	!	!	!	!	!	!
!LO:LB:g=original	!	!	!	!	!	!	!
=38-	=38-	=38-	=38-	=38-	=38-	=38-	=38-
2g\	u-	1G	gen-	1g	gen-	1b	gen-
2g\	-ni-	.	.	.	.	.	.
!	!	!	!	!	!	!LO:SIC:v:t=custos cc	!
!	!	!	!	!	!	!LO:LB:g=original	!
=39-	=39-	=39-	=39-	=39-	=39-	=39-	=39-
1c	-ta-	2c/	-tis	2g\	-teſ	2cc\	-teſ
.	.	2c/	in	2g\	in	2cc\	in
=40-	=40-	=40-	=40-	=40-	=40-	=40-	=40-
4c/	.	2c/	u-	2g\	u-	2cc\	u-
4d/	.	.	.	.	.	.	.
4e\	.	2c/	-ni-	2g\	-ni-	2cc\	-ni-
4f\	.	.	.	.	.	.	.
=41-	=41-	=41-	=41-	=41-	=41-	=41-	=41-
1g	-te,	1G	-ta-	1g	-ta-	1b	-ta-
=42-	=42-	=42-	=42-	=42-	=42-	=42-	=42-
2r	.	2c/	-te	2g\	-te	2cc\	-te
!	!	!	!	!LO:SIC:v:t=custos a	!	!	!
!	!	!	!	!LO:LB:g=original	!	!	!
1F/	fi-	1f\	fi-	1a\	fi-	1cc\	fi-
=43-	=43-	=43-	=43-	=43-	=43-	=43-	=43-
.	.	.	.	.	.	.	.
!	!	!LO:SIC:v:t=custos f	!	!	!	!	!
!	!	!LO:LB:g=original	!	!	!	!	!
2F/	-de-	2f\	-de-	2a\	-te-	2cc\	-de-
=44-	=44-	=44-	=44-	=44-	=44-	=44-	=44-
2c/	-i	2c/	-i	2g,<\	-i	2cc,<\	-i
2c/	kon-	2c/	con-	2g\	con-	2cc\	con-
=45-	=45-	=45-	=45-	=45-	=45-	=45-	=45-
1G	-gre-	1g	-gre-	1g	-gre-	1b	-gre-
=46-	=46-	=46-	=46-	=46-	=46-	=46-	=46-
4c/	-ga-	1c	-gaſ-	1g	-gaſ-	2.cc\	-ga-
4d/	.	.	.	.	.	.	.
4e\	.	.	.	.	.	.	.
4f\	.	.	.	.	.	8b\L	.
.	.	.	.	.	.	8a\J	.
=47-	=47-	=47-	=47-	=47-	=47-	=47-	=47-
0g;<	-ſtij	0G	-ti	0g;<	-ti,	0b;<	-ſtij
=48-	=48-	=48-	=48-	=48-	=48-	=48-	=48-
.	.	.	.	.	.	.	.
=49||-	=49||-	=49||-	=49||-	=49||-	=49||-	=49||-	=49||-
*M3/2	*	*M3/2	*	*M3/2	*	*M3/2	*
0.r	.	1G	Al-	1g	Al-	1b	Al-
.	.	1c\	-le-	1g\	-le-	1cc\	-le-
=50-	=50-	=50-	=50-	=50-	=50-	=50-	=50-
.	.	1A	-lu-	1a	-lu-	1cc	-lu-
=51-	=51-	=51-	=51-	=51-	=51-	=51-	=51-
1g	Al-	0G	-ia	0d	-ia,	0b	-ia,
1g\	-le-	.	.	.	.	.	.
=52-	=52-	=52-	=52-	=52-	=52-	=52-	=52-
1f	-lu-	1r	.	1r	.	1r	.
=53-	=53-	=53-	=53-	=53-	=53-	=53-	=53-
1d	-ia,	1d	Al-	1a	Al-	1dd	Al-
1r	.	1G/	-l(e-	1g\	-le-	1b\	-le-
=54-	=54-	=54-	=54-	=54-	=54-	=54-	=54-
!	!	!	!	!	!	!LO:SIC:v:t=custos cc	!
!	!	!	!	!	!	!LO:LB:g=original	!
1r	.	1c	-lu-	1g	-lu-	1cc	-lu-
=55-	=55-	=55-	=55-	=55-	=55-	=55-	=55-
1f	Al-	0F	-i)a	0a	-ia,	0cc	-ia,
1f\	-le-	.	.	.	.	.	.
=56-	=56-	=56-	=56-	=56-	=56-	=56-	=56-
1d	-lu-	1r	.	1r	.	1r	.
!LO:SIC:v:t=custos c	!	!	!	!	!	!	!
!LO:PB:g=original	!	!	!	!	!	!	!
=57-	=57-	=57-	=57-	=57-	=57-	=57-	=57-
*	*	*	*ij	*	*	*	*
1c	-ia	1c	Al-	1g	Al-	1cc	Al-
1r	.	1f\	-le-	1a\	-le-	1a\	-le-
=58-	=58-	=58-	=58-	=58-	=58-	=58-	=58-
.	.	.	.	.	.	.	.
1r	.	1d	-lu-	1f	-lu-	1b	-lu-
=59-	=59-	=59-	=59-	=59-	=59-	=59-	=59-
1c	Al-	0c	-ia	0g	-ia,	0cc	-ia,
1f\	-le-	.	.	.	.	.	.
=60-	=60-	=60-	=60-	=60-	=60-	=60-	=60-
.	.	.	.	.	.	.	.
!	!	!LO:N:vis=1	!	!LO:N:vis=1	!	!LO:N:vis=1	!
1g	-lu-	0r	.	0r	.	0r	.
=61-	=61-	=61-	=61-	=61-	=61-	=61-	=61-
0c,<	-ia,	.	.	.	.	.	.
.	.	2r	.	2r	.	2r	.
=62-	=62-	=62-	=62-	=62-	=62-	=62-	=62-
.	.	2r	.	2r	.	2r	.
1A	Al-	1a	Al-	1a	Al-	1cc	Al-
=63-	=63-	=63-	=63-	=63-	=63-	=63-	=63-
0d	-le-	0d	-le-	0a	-le-	0dd	-le-
=64-	=64-	=64-	=64-	=64-	=64-	=64-	=64-
.	.	.	.	.	.	.	.
!	!	!	!	!LO:SIC:v:t=custos g	!	!	!
!	!	!	!	!LO:LB:g=original	!	!	!
1G	-lu-	1g	-lu-	1g	-lu-	1dd	-lu-
=65-	=65-	=65-	=65-	=65-	=65-	=65-	=65-
0c,<	-ia	0c	-ia	0g	-ia,	0cc	-ia,
*	*	*	*Xij	*	*	*	*
=66-	=66-	=66-	=66-	=66-	=66-	=66-	=66-
.	.	.	.	.	.	.	.
!	!	!LO:SIC:v:t=custos c	!	!	!	!	!
!	!	!LO:LB:g=original	!	!	!	!	!
1c	Al-	1c	Al-	1g	Al-	1cc	Al-
=67-	=67-	=67-	=67-	=67-	=67-	=67-	=67-
0g	-le-	0G	-l(e-	0g	-le-	0b	-le-
=68-	=68-	=68-	=68-	=68-	=68-	=68-	=68-
.	.	.	.	.	.	.	.
1g	-lu-	1G	-lu	1g	-lu-	1b	-lu-
=69-	=69-	=69-	=69-	=69-	=69-	=69-	=69-
*M2/2	*	*M2/2	*	*M2/2	*	*M2/2	*
*met(C|)	*	*met(C|)	*	*met(C|)	*	*met(C|)	*
!	!	!	!	!	!LO:SIC:v:l:s:t=-ia,	!	!
2c/	-ia,	2c/	-i)a	2g\	-fa,	2cc,<\	-ia,
1f\	Al-	4F/	Al-	1a\	Al-	1cc\	Al-
.	.	4G/	.	.	.	.	.
=70-	=70-	=70-	=70-	=70-	=70-	=70-	=70-
.	.	4A/	-l(e-	.	.	.	.
.	.	4B/	.	.	.	.	.
2c/	-le-	2c/	-lu-	2g\	-le-	2.cc\	-le-
=71-	=71-	=71-	=71-	=71-	=71-	=71-	=71-
1g	-lu-	1G	.	1g	-lu-	.	.
.	.	.	.	.	.	8b\L	.
.	.	.	.	.	.	8a\J	.
.	.	.	.	.	.	2b\	-lu-
=72-	=72-	=72-	=72-	=72-	=72-	=72-	=72-
0c;;	-ia,	0c;;	-i)a	0g;;	-ia,	0cc;;	-ia,
=-||	=-||	=-||	=-||	=-||	=-||	=-||	=-||
*-	*-	*-	*-	*-	*-	*-	*-
!!!system-decoration: [(s1,s2,s3)][(s4)]
!!!AIN: 4 empty
!!!ENC: Andrzej Gręziak
!!!END: 2021-10-02
!!!EED: Jędrzej Mróz
!!!ESR: 2021-10-08
!!!RDF**kern: > = above
!!!RDF**kern: < = below
